X:1
T:Siubh=E1n N=ED Dhuibhir
R:Air
M:6/8
L:1/8
Z:Ted Hastings <ted@HASTINGS.NU> irtrad-l 2000-09-23
K:D
E>BB B>cd | B>AF E2E | E3- E2B | e2e ddd |
c>BA c2d | B3- B2B | e2e ddd | c>BA c2d |
B3- B2F | F>BB B>cd | B>AF E2E | E3 - E3 |]

